X:1
T:Mrs. J. Forbes (Banff)
T:Mrs. J. Forbes (Banff)
T:Alexander Walker
C:Alexander Walker
L:1/8
M:2/2
K:D
V:1 treble 
V:1
 E2 BA BEEF | D2 AF ADDF | E2 BA Bdef | dBAF E2- E :: f | efge BeEc | defe dAFD | efge deBc | %8
 dBAF E2- E :| %9

